X: 7
T: Patsy Geary's
Z: JACKB
S: https://thesession.org/tunes/325#setting26875
R: slide
M: 12/8
L: 1/8
K: Dmaj
|:F2A AFA B3 A2G|F2A d2e f3 fef|
g3 fgf efe d2B|1 A3 AFD E3 EDE:|2 ABA efe d3 d2 e||
|:f2e f2e f2e fga|A3 BAF A3 ABd|
e2d e2d e2d efa|1 baf afe d3 d2e:|2 baf afe d3 d2A||

